dist/assets/img/svg/fb-icon.svg

<svg width="10" height="19" viewBox="0 0 10 19" xmlns="http://www.w3.org/2000/svg">
<path d="M9.18359 10.375H6.54688V18.25H3.03125V10.375H0.183594V7.10547H3.03125V4.64453C3.03125 3.23828 3.41797 2.16016 4.19141 1.41016C4.96484 0.636719 5.99609 0.25 7.28516 0.25C7.66016 0.25 8.05859 0.273438 8.48047 0.320312C8.90234 0.34375 9.23047 0.378906 9.46484 0.425781L9.81641 0.460938V3.23828H8.41016C7.75391 3.23828 7.27344 3.41406 6.96875 3.76562C6.6875 4.09375 6.54688 4.50391 6.54688 4.99609V7.10547H9.67578L9.18359 10.375Z" />
</svg>

<svg width="10" height="19" xmlns="http://www.w3.org/2000/svg"><path d="M9.184 10.375H6.547v7.875H3.03v-7.875H.184v-3.27H3.03v-2.46c0-1.407.387-2.485 1.16-3.235C4.965.637 5.996.25 7.285.25c.375 0 .774.023 1.195.07.422.024.75.059.985.106l.351.035v2.777H8.41c-.656 0-1.137.176-1.441.528-.282.328-.422.738-.422 1.23v2.11h3.129l-.492 3.269z"/></svg>6484 0.425781L9.81641 0.460938V3.23828H8.41016C7.75391 3.23828 7.27344 3.41406 6.96875 3.76562C6.6875 4.09375 6.54688 4.50391 6.54688 4.99609V7.10547H9.67578L9.18359 10.375Z" />
</svg>
